X: 42103
T: Wandescope
R: jig
M: 6/8
K: Gmajor
d|B>AG B>cd|B>AG B>cd|c>dc B>cB|A3A2B|
c>de e>fg|gfe dcB|A>BA F>ED|d3d2B|
c>de e>fg|gfe dcB|A>BA F>EF|G3G2||

